svg/u1f935_1f3fc_200d_2642.svg

<svg viewBox="0 0 128 128" xmlns="http://www.w3.org/2000/svg">
  <g id="XMLID_1_">
    <linearGradient id="SVGID_1_" gradientTransform="matrix(1 0 0 -1 0 128)" gradientUnits="userSpaceOnUse" x1="64" x2="64" y1="32.1553" y2="-2.3633">
      <stop offset="3.200000e-03" stop-color="#616161"/>
      <stop offset="0.2772" stop-color="#545454"/>
      <stop offset="0.7831" stop-color="#323232"/>
      <stop offset="1" stop-color="#212121"/>
    </linearGradient>
    <path d="M64.14,96c-0.05,0-0.09,0-0.14,0c-25.65,0.03-52,7.1-52,24.99V124h1.5H15h98h1.5h1.5v-3.01 C116,104.12,89.9,96,64.14,96z" fill="url(#SVGID_1_)"/>
  </g>
  <g id="neck">
    <path d="M64,90.08h-9.08v9.98c0,4.51,3.7,8.17,8.26,8.17h1.65c4.56,0,8.26-3.66,8.26-8.17v-9.98L64,90.08z" fill="#C48E6A"/>
  </g>
  <g id="bowtie_1_">
    <polygon fill="#E0E0E0" points="52.66,106 56.51,124 64.22,124 64.66,124 71.9,124 75.34,106 "/>
    <path d="M53.75,114.54L64.01,106c0,0-2.94-0.06-6.11-4.19c-1.86-2.42-3.12-6.03-3.12-6.03l-3.14,0.79 L53.75,114.54z" fill="#FFFFFF"/>
    <path d="M74.27,114.54L64,106c0,0,2.94-0.06,6.11-4.19c1.86-2.42,3.12-6.03,3.12-6.03l3.14,0.79 L74.27,114.54z" fill="#FFFFFF"/>
    <g>
      <path d="M51.72,96.57c-0.03,0-0.07,0.01-0.1,0.01l0-0.01c-0.11,0.02-0.22,0.03-0.33,0.05 c-3.52,0.35-6.96,0.84-10.26,1.5l-3.98,6.36l7.12,4.36l-4.75,6.11l9.3,9.05h2.87h4.07h2.04h0.01L51.72,96.57z" fill="#9E9E9E"/>
      <path d="M90.96,104.48l-3.87-6.18c-3.47-0.74-7.1-1.3-10.82-1.68L70.31,124h0h2.05h4.07h2.87l9.3-9.05 l-4.75-6.11L90.96,104.48z" fill="#9E9E9E"/>
    </g>
    <g>
      <path d="M64.77,115.14h-1.4c-1.53,0-2.85-1.05-3.21-2.54l-0.53-2.25c-0.49-2.07,1.08-4.06,3.21-4.06h2.45 c2.12,0,3.68,1.97,3.21,4.03l-0.51,2.25C67.64,114.08,66.3,115.14,64.77,115.14z" fill="#212121"/>
      <path d="M48.79,117.09v-12.07c0-1.5,1.63-2.45,2.95-1.71l10.69,5.94c1.34,0.74,1.35,2.65,0.02,3.42 l-10.69,6.13C50.44,119.54,48.79,118.6,48.79,117.09z" fill="#212121"/>
      <path d="M78.79,117.09v-12.07c0-1.5-1.63-2.45-2.95-1.71l-10.69,5.94c-1.34,0.74-1.35,2.65-0.02,3.42 l10.69,6.13C77.14,119.54,78.79,118.6,78.79,117.09z" fill="#212121"/>
    </g>
    <circle cx="63.75" cy="120" fill="#212121" r="2"/>
  </g>
  <g id="ears_2_">
    <path d="M91.33,50.43H36.67c-5.89,0-10.71,5.14-10.71,11.41s4.82,11.41,10.71,11.41h54.65 c5.89,0,10.71-5.14,10.71-11.41S97.22,50.43,91.33,50.43z" fill="#C48E6A"/>
  </g>
  <g id="head_1_">
    <path d="M64,11.07L64,11.07L64,11.07c-17.4,0-33.52,18.61-33.52,45.4c0,26.64,16.61,39.81,33.52,39.81 S97.52,83.1,97.52,56.46C97.52,29.68,81.4,11.07,64,11.07z" fill="#E0BB95"/>
  </g>
  <g id="eyebrows">
    <path d="M39.98,50.73c2.99-4.23,9.78-4.63,13.67-1.48c0.62,0.5,1.44,1.2,1.68,1.98 c0.4,1.27-0.82,2.26-2.01,1.96c-0.76-0.19-1.47-0.6-2.22-0.83c-1.37-0.43-2.36-0.55-3.59-0.55c-1.82-0.01-2.99,0.22-4.72,0.92 c-0.71,0.29-1.29,0.75-2.1,0.41C39.77,52.75,39.42,51.56,39.98,50.73z" fill="#AB872F"/>
    <path d="M86.04,53.13c-0.29-0.13-0.57-0.29-0.86-0.41c-1.78-0.74-2.79-0.93-4.72-0.92 c-1.7,0.01-2.71,0.24-4.04,0.69c-0.81,0.28-1.84,0.98-2.74,0.71c-1.32-0.4-1.28-1.84-0.56-2.76c0.86-1.08,2.04-1.9,3.29-2.44 c2.9-1.26,6.44-1.08,9.17,0.55c0.89,0.53,1.86,1.26,2.4,2.18C88.77,52.03,87.58,53.76,86.04,53.13z" fill="#AB872F"/>
  </g>
  <g id="eyes_2_">
    <ellipse cx="47.56" cy="58.81" fill="#5D4037" rx="4.93" ry="5.1"/>
    <ellipse cx="80.44" cy="58.81" fill="#5D4037" rx="4.93" ry="5.1"/>
  </g>
  <path id="mouth_2_" d="M72.42,76.14c-3.18,1.89-13.63,1.89-16.81,0c-1.83-1.09-3.7,0.58-2.94,2.24 c0.75,1.63,6.44,5.42,11.37,5.42s10.55-3.79,11.3-5.42C76.09,76.72,74.25,75.05,72.42,76.14z" fill="#6D4C41"/>
  <path id="nose_2_" d="M67.86,68.06c-0.11-0.04-0.21-0.07-0.32-0.08h-7.08c-0.11,0.01-0.22,0.04-0.32,0.08 c-0.64,0.26-0.99,0.92-0.69,1.63c0.3,0.71,1.71,2.69,4.55,2.69s4.25-1.99,4.55-2.69C68.85,68.98,68.5,68.32,67.86,68.06z" fill="#C48E6A"/>
  <g id="hairGroup">
    <path id="hair_7_" d="M64.07,4.03L64.07,4.03c-0.01,0-0.01,0-0.02,0s-0.01,0-0.02,0l0,0 C18.6,4.27,27.91,56.17,27.91,56.17s2.04,5.35,2.97,7.71c0.13,0.34,0.63,0.3,0.71-0.05c0.97-4.34,4.46-19.73,6.22-24.41 c1.04-2.76,3.9-4.36,6.79-3.83c4.45,0.81,11.55,1.81,19.37,1.81c0.03,0,0.06,0,0.08,0s0.06,0,0.08,0c7.82,0,14.92-1,19.37-1.81 c2.9-0.53,5.76,1.08,6.79,3.83c1.75,4.66,5.22,19.96,6.2,24.36c0.08,0.36,0.58,0.39,0.71,0.05l2.98-7.67 C100.2,56.17,109.51,4.27,64.07,4.03z" fill="#AB872F"/>
    <radialGradient id="hairHighlights_1_" cx="64.0551" cy="80.9011" gradientTransform="matrix(1 0 0 -1.1282 0 138.3704)" gradientUnits="userSpaceOnUse" r="38.0923">
      <stop offset="0.7945" stop-color="#BFA055" stop-opacity="0"/>
      <stop offset="1" stop-color="#BFA055"/>
    </radialGradient>
    <path id="hairHighlights" d="M100.2,56.17c0,0,9.31-51.9-36.13-52.14v0 c-0.01,0-0.01,0-0.02,0h0c0,0-0.01,0-0.02,0l0,0c-0.71,0-1.4,0.02-2.08,0.05c-1.35,0.06-2.66,0.16-3.92,0.31c-0.01,0-0.03,0-0.04,0 c-0.09,0.01-0.17,0.03-0.26,0.04C19.5,9.24,27.91,56.17,27.91,56.17l2.98,7.68c0.13,0.34,0.62,0.31,0.7-0.05 c0.98-4.39,4.46-19.71,6.22-24.37c1.04-2.76,3.9-4.36,6.79-3.83c4.45,0.81,11.55,1.81,19.37,1.81c0.03,0,0.06,0,0.08,0 s0.06,0,0.08,0c7.82,0,14.92-1,19.37-1.81c2.9-0.53,5.76,1.08,6.79,3.83c1.76,4.68,5.25,20.1,6.21,24.42 c0.08,0.36,0.57,0.39,0.7,0.05C98.15,61.54,100.2,56.17,100.2,56.17z" fill="url(#hairHighlights_1_)"/>
  </g>
</svg>

<svg viewBox="0 0 128 128" xmlns="http://www.w3.org/2000/svg">
  <defs>
    <linearGradient id="SVGID_1_" gradientTransform="matrix(1 0 0 -1 0 0)" gradientUnits="userSpaceOnUse" x1="64" x2="64" y1="-95.8447" y2="-130.3633">
      <stop offset="3.200000e-03" stop-color="#616161"/>
      <stop offset="0.2772" stop-color="#545454"/>
      <stop offset="0.7831" stop-color="#323232"/>
      <stop offset="1" stop-color="#212121"/>
    </linearGradient>
    <radialGradient id="hairHighlights_1_" cx="64.0551" cy="-41.745948" gradientTransform="matrix(1 0 0 -1.1282 0 0)" gradientUnits="userSpaceOnUse" r="38.0923">
      <stop offset="0.7945" stop-color="#BFA055" stop-opacity="0"/>
      <stop offset="1" stop-color="#BFA055"/>
    </radialGradient>
  </defs>
  <path d="M64.14,96 C64.09,96 64.05,96 64,96 C38.35,96.03 12,103.1 12,120.99 L12,124 L13.5,124 L15,124 L113,124 L114.5,124 L116,124 L116,120.99 C116,104.12 89.9,96 64.14,96 Z" fill="url(#SVGID_1_)"/>
  <path d="M64,90.08 L54.92,90.08 L54.92,100.06 C54.92,104.57 58.62,108.23 63.18,108.23 L64.83,108.23 C69.39,108.23 73.09,104.57 73.09,100.06 L73.09,90.08 L64,90.08 Z" fill="#C48E6A"/>
  <path d="M52.66,106 L56.51,124 L64.22,124 L64.66,124 L71.9,124 L75.34,106 Z" fill="#E0E0E0"/>
  <path d="M53.75,114.54 L64.01,106 C64.01,106 61.07,105.94 57.9,101.81 C56.04,99.39 54.78,95.78 54.78,95.78 L51.64,96.57 L53.75,114.54 Z" fill="#FFFFFF"/>
  <path d="M74.27,114.54 L64,106 C64,106 66.94,105.94 70.11,101.81 C71.97,99.39 73.23,95.78 73.23,95.78 L76.37,96.57 L74.27,114.54 Z" fill="#FFFFFF"/>
  <path d="M51.72,96.57 C51.69,96.57 51.65,96.58 51.62,96.58 L51.62,96.57 C51.51,96.59 51.4,96.6 51.29,96.62 C47.77,96.97 44.33,97.46 41.03,98.12 L37.05,104.48 L44.17,108.84 L39.42,114.95 L48.72,124 L51.59,124 L55.66,124 L57.7,124 L57.71,124 L51.72,96.57 Z" fill="#9E9E9E"/>
  <path d="M90.96,104.48 L87.09,98.3 C83.62,97.56 79.99,97 76.27,96.62 L70.31,124 L70.31,124 L72.36,124 L76.43,124 L79.3,124 L88.6,114.95 L83.85,108.84 L90.96,104.48 Z" fill="#9E9E9E"/>
  <path d="M64.77,115.14 L63.37,115.14 C61.84,115.14 60.52,114.09 60.16,112.6 L59.63,110.35 C59.14,108.28 60.71,106.29 62.84,106.29 L65.29,106.29 C67.41,106.29 68.97,108.26 68.5,110.32 L67.99,112.57 C67.64,114.08 66.3,115.14 64.77,115.14 Z" fill="#212121"/>
  <path d="M48.79,117.09 L48.79,105.02 C48.79,103.52 50.42,102.57 51.74,103.31 L62.43,109.25 C63.77,109.99 63.78,111.9 62.45,112.67 L51.76,118.8 C50.44,119.54 48.79,118.6 48.79,117.09 Z" fill="#212121"/>
  <path d="M78.79,117.09 L78.79,105.02 C78.79,103.52 77.16,102.57 75.84,103.31 L65.15,109.25 C63.81,109.99 63.8,111.9 65.13,112.67 L75.82,118.8 C77.14,119.54 78.79,118.6 78.79,117.09 Z" fill="#212121"/>
  <path d="M65.75,120 A2 2 0 1 1 61.75,120 A2 2 0 1 1 65.75,120 Z" fill="#212121"/>
  <path d="M91.33,50.43 L36.67,50.43 C30.78,50.43 25.96,55.57 25.96,61.84 C25.96,68.11 30.78,73.25 36.67,73.25 L91.32,73.25 C97.21,73.25 102.03,68.11 102.03,61.84 C102.03,55.57 97.22,50.43 91.33,50.43 Z" fill="#C48E6A"/>
  <path d="M64,11.07 L64,11.07 L64,11.07 C46.6,11.07 30.48,29.68 30.48,56.47 C30.48,83.11 47.09,96.28 64,96.28 C80.91,96.28 97.52,83.1 97.52,56.46 C97.52,29.68 81.4,11.07 64,11.07 Z" fill="#E0BB95"/>
  <path d="M39.98,50.73 C42.97,46.5 49.76,46.1 53.65,49.25 C54.27,49.75 55.09,50.45 55.33,51.23 C55.73,52.5 54.51,53.49 53.32,53.19 C52.56,53 51.85,52.59 51.1,52.36 C49.73,51.93 48.74,51.81 47.51,51.81 C45.69,51.8 44.52,52.03 42.79,52.73 C42.08,53.02 41.5,53.48 40.69,53.14 C39.77,52.75 39.42,51.56 39.98,50.73 Z" fill="#AB872F"/>
  <path d="M86.04,53.13 C85.75,53 85.47,52.84 85.18,52.72 C83.4,51.98 82.39,51.79 80.46,51.8 C78.76,51.81 77.75,52.04 76.42,52.49 C75.61,52.77 74.58,53.47 73.68,53.2 C72.36,52.8 72.4,51.36 73.12,50.44 C73.98,49.36 75.16,48.54 76.41,48 C79.31,46.74 82.85,46.92 85.58,48.55 C86.47,49.08 87.44,49.81 87.98,50.73 C88.77,52.03 87.58,53.76 86.04,53.13 Z" fill="#AB872F"/>
  <path d="M52.49,58.81 A4.93 5.1 0 1 1 42.63,58.81 A4.93 5.1 0 1 1 52.49,58.81 Z" fill="#5D4037"/>
  <path d="M85.37,58.81 A4.93 5.1 0 1 1 75.51,58.81 A4.93 5.1 0 1 1 85.37,58.81 Z" fill="#5D4037"/>
  <path id="mouth_2_" d="M72.42,76.14 C69.24,78.03 58.79,78.03 55.61,76.14 C53.78,75.05 51.91,76.72 52.67,78.38 C53.42,80.01 59.11,83.8 64.04,83.8 C68.97,83.8 74.59,80.01 75.34,78.38 C76.09,76.72 74.25,75.05 72.42,76.14 Z" fill="#6D4C41"/>
  <path id="nose_2_" d="M67.86,68.06 C67.75,68.02 67.65,67.99 67.54,67.98 L60.46,67.98 C60.35,67.99 60.24,68.02 60.14,68.06 C59.5,68.32 59.15,68.98 59.45,69.69 C59.75,70.4 61.16,72.38 64,72.38 C66.84,72.38 68.25,70.39 68.55,69.69 C68.85,68.98 68.5,68.32 67.86,68.06 Z" fill="#C48E6A"/>
  <path id="hair_7_" d="M64.07,4.03 L64.07,4.03 C64.06,4.03 64.06,4.03 64.05,4.03 C64.04,4.03 64.04,4.03 64.03,4.03 L64.03,4.03 C18.6,4.27 27.91,56.17 27.91,56.17 C27.91,56.17 29.95,61.52 30.88,63.88 C31.01,64.22 31.51,64.18 31.59,63.83 C32.56,59.49 36.05,44.1 37.81,39.42 C38.85,36.66 41.71,35.06 44.6,35.59 C49.05,36.4 56.15,37.4 63.97,37.4 C64,37.4 64.03,37.4 64.05,37.4 C64.07,37.4 64.11,37.4 64.13,37.4 C71.95,37.4 79.05,36.4 83.5,35.59 C86.4,35.06 89.26,36.67 90.29,39.42 C92.04,44.08 95.51,59.38 96.49,63.78 C96.57,64.14 97.07,64.17 97.2,63.83 L100.18,56.16 C100.2,56.17 109.51,4.27 64.07,4.03 Z" fill="#AB872F"/>
  <path id="hairHighlights" d="M100.2,56.17 C100.2,56.17 109.51,4.27 64.07,4.03 L64.07,4.03 C64.06,4.03 64.06,4.03 64.05,4.03 L64.05,4.03 C64.05,4.03 64.04,4.03 64.03,4.03 L64.03,4.03 C63.32,4.03 62.63,4.05 61.95,4.08 C60.6,4.14 59.29,4.24 58.03,4.39 C58.02,4.39 58,4.39 57.99,4.39 C57.9,4.4 57.82,4.42 57.73,4.43 C19.5,9.24 27.91,56.17 27.91,56.17 L30.89,63.85 C31.02,64.19 31.51,64.16 31.59,63.8 C32.57,59.41 36.05,44.09 37.81,39.43 C38.85,36.67 41.71,35.07 44.6,35.6 C49.05,36.41 56.15,37.41 63.97,37.41 C64,37.41 64.03,37.41 64.05,37.41 C64.07,37.41 64.11,37.41 64.13,37.41 C71.95,37.41 79.05,36.41 83.5,35.6 C86.4,35.07 89.26,36.68 90.29,39.43 C92.05,44.11 95.54,59.53 96.5,63.85 C96.58,64.21 97.07,64.24 97.2,63.9 C98.15,61.54 100.2,56.17 100.2,56.17 Z" fill="url(#hairHighlights_1_)"/>
</svg>
